client/src/assets/images/icon-task-examination.svg

<svg viewBox="0 0 122 122" xmlns="http://www.w3.org/2000/svg"><g fill="#fff"><path d="m80.58 50.48a10.32 10.32 0 0 0 -1.11 20.58v9.24a15.16 15.16 0 1 1 -30.31.59v-9a5.81 5.81 0 0 0 4.54-5.16 16.81 16.81 0 0 0 10.98-15.73v-22.88a1.16 1.16 0 0 0 -1.16-1.12h-2.27a4.22 4.22 0 1 0 0 2.31h1.12v21.69a14.48 14.48 0 1 1 -29 .58v-22.31h1.12a4.22 4.22 0 1 0 0-2.31h-2.23a1.16 1.16 0 0 0 -1.16 1.16v22.88a16.83 16.83 0 0 0 11 15.74 5.82 5.82 0 0 0 4.73 5.26v8.36a17.46 17.46 0 0 0 34.92.64q0-.32 0-.63v-9.29a10.33 10.33 0 0 0 -1.17-20.6zm-23.38-20.48a1.91 1.91 0 1 1 1.91-1.91 1.93 1.93 0 0 1 -1.91 1.91zm-18.62-3.79a1.91 1.91 0 1 1 -1.91 1.91 1.93 1.93 0 0 1 1.91-1.91zm8.1 43.33a3.47 3.47 0 0 1 -2.07-2.07 16.47 16.47 0 0 0 6.56 0 3.49 3.49 0 0 1 -4.49 2.07zm33.9-.72a8 8 0 1 1 8-8 8 8 0 0 1 -8 8z"/><path d="m80.58 54.9a5.91 5.91 0 1 0 5.91 5.91 5.91 5.91 0 0 0 -5.91-5.91zm0 9.51a3.6 3.6 0 1 1 3.6-3.6 3.6 3.6 0 0 1 -3.6 3.6z"/></g></svg>

<svg xmlns="http://www.w3.org/2000/svg" viewBox="0 0 122 122"><defs><style>.cls-1{fill:#fff;}</style></defs><title>Week 22_Icons</title><g id="Content"><path class="cls-1" d="M80.58,50.48a10.32,10.32,0,0,0-1.11,20.58V80.3a15.16,15.16,0,1,1-30.31.59v-9a5.81,5.81,0,0,0,4.54-5.16A16.81,16.81,0,0,0,64.68,51V28.12A1.16,1.16,0,0,0,63.52,27H61.25a4.22,4.22,0,1,0,0,2.31h1.12V51a14.48,14.48,0,1,1-29,.58V29.27h1.12a4.22,4.22,0,1,0,0-2.31H32.26a1.16,1.16,0,0,0-1.16,1.16V51a16.83,16.83,0,0,0,11,15.74A5.82,5.82,0,0,0,46.83,72v8.36A17.46,17.46,0,0,0,81.75,81q0-.32,0-.63V71.08a10.33,10.33,0,0,0-1.17-20.6ZM57.2,30a1.91,1.91,0,1,1,1.91-1.91A1.93,1.93,0,0,1,57.2,30ZM38.58,26.21a1.91,1.91,0,1,1-1.91,1.91A1.93,1.93,0,0,1,38.58,26.21Zm8.1,43.33a3.47,3.47,0,0,1-2.07-2.07,16.47,16.47,0,0,0,6.56,0A3.49,3.49,0,0,1,46.68,69.54Zm33.9-.72h0a8,8,0,1,1,8-8A8,8,0,0,1,80.58,68.82Z"/><path class="cls-1" d="M80.58,54.9a5.91,5.91,0,1,0,5.91,5.91A5.91,5.91,0,0,0,80.58,54.9Zm0,9.51a3.6,3.6,0,1,1,3.6-3.6A3.6,3.6,0,0,1,80.58,64.41Z"/></g></svg>
